public/images/categories/settings.svg

<?xml version="1.0" encoding="UTF-8" standalone="no"?>
<svg
   width="20"
   height="20"
   viewBox="0 0 20 20"
   fill="currentColor"
   version="1.1"
   id="svg8"
   xmlns="http://www.w3.org/2000/svg"
   xmlns:svg="http://www.w3.org/2000/svg">
  <defs
     id="defs12" />
  <path
     id="path2"
     d="m 17.601562,0 c -0.09267,-1.415875e-4 -0.184893,0.00579302 -0.277343,0.01953125 -0.3696,0.0548136 -0.716488,0.22036025 -0.992188,0.47265625 -0.3279,0.285915 -0.623506,0.6119719 -0.941406,0.9199219 L 13.818359,2.984375 c -0.5736,0.57185 -1.14905,1.14291 -1.71875,1.71875 -0.2141,0.25231 -0.490581,0.4438037 -0.800781,0.5585938 -0.164,0.04993 -0.310709,0.1554262 -0.474609,0.1914062 -0.3319,0.07001 -0.354566,0.5190344 -0.134766,0.7089844 0.152,0.13194 0.285694,0.2818318 0.433594,0.4199218 0.2,0.2000001 0.40049,0.3796694 0.650391,0.5996094 -0.3238,0.30586 -0.616438,0.5736025 -0.898438,0.8515625 -0.98731,0.9943 -1.97596,1.9898749 -2.96875,2.9843749 -1.33256,1.3329 -2.671215,2.665147 -4.015625,3.998047 -0.08464,0.0883 -0.1959362,0.147169 -0.3164062,0.167969 -0.3517901,0.066 -0.6989944,0.147219 -1.0527344,0.199218 -0.10206,0.018 -0.1898982,0.08318 -0.2363282,0.175782 L 0.94921875,17.654297 0,19.119141 0.875,19.966797 c 0.273851,-0.182 0.5598762,-0.372447 0.8476562,-0.560547 0.9114701,-0.5878 1.822765,-1.175972 2.734375,-1.763672 0.05326,-0.0377 0.093065,-0.09305 0.109375,-0.15625 0.0739,-0.3399 0.1452488,-0.679437 0.1992188,-1.023437 0.02914,-0.1605 0.1111219,-0.306816 0.2324219,-0.416016 1.19271,-1.1849 2.37911,-2.373506 3.5625,-3.566406 L 12.619141,8.4101562 c 0.054,-0.05398 0.109928,-0.1059118 0.173828,-0.1699218 0.0799,0.08201 0.150756,0.1565487 0.222656,0.2304687 0.2919,0.28996 0.581159,0.5851806 0.880859,0.8691407 0.0876,0.07127 0.201,0.1011343 0.3125,0.083984 0.1116,-0.01716 0.211238,-0.079688 0.273438,-0.1738281 0.0979,-0.22399 0.199397,-0.4477644 0.279297,-0.6777344 0.0702,-0.19903 0.187297,-0.3796575 0.341797,-0.5234375 1.4452,-1.43754 2.887065,-2.8687331 4.322265,-4.3144531 0.2914,-0.28061 0.483328,-0.647695 0.548828,-1.046875 0.0656,-0.39932 8.53e-4,-0.8088188 -0.185547,-1.1679688 C 19.516163,0.91423325 19.022203,0.43588275 18.408203,0.18359375 18.155303,0.06256887 17.879578,4.247625e-4 17.601562,0 Z M 4.1992188,0.0390625 C 3.9566953,0.04377869 3.7141238,0.06240422 3.4726562,0.09765625 3.2526363,0.14159055 3.0344825,0.19700388 2.8203125,0.26367188 c 0.04002,0.049929 0.058185,0.073666 0.078125,0.09375 0.8596,0.88243602 1.718515,1.76477122 2.578125,2.64453122 0.50572,0.51589 0.5730806,1.0192894 0.025391,1.5371094 -0.2599,0.24589 -0.5019456,0.5098356 -0.7597656,0.7597656 -0.21389,0.2 -0.4302294,0.4175894 -0.6621094,0.5996094 C 3.9268381,6.0098775 3.732025,6.0500656 3.546875,6.0097656 3.290175,5.9568956 3.0591987,5.8225 2.8867188,5.625 2.2290088,4.9791 1.5775033,4.323625 0.92578125,3.671875 0.69794825,3.443985 0.47436187,3.2108606 0.23242188,2.9628906 c -0.018126,0.04045 -0.0350221,0.08288 -0.0488281,0.125 -0.2164005,0.84155 -0.24139862,1.7199556 -0.0722656,2.5722656 0.229786,1.15368 0.7563945,2.1154001 1.75781248,2.78125 0.60068,0.40782 1.2977044,0.6529244 2.0214844,0.7089844 0.82755,0.05997 1.6605975,0.00976 2.4921875,0.013672 0.06874,-1.4e-4 0.1347969,0.025826 0.1855469,0.072266 0.32781,0.36387 0.6487562,0.7355288 0.9726562,1.1054689 0.04392,0.0499 0.091388,0.09714 0.1113282,0.119141 L 10.394531,7.7519531 c -0.0087,-0.0106 -0.0192,-0.019957 -0.0293,-0.029297 C 9.9935344,7.4007563 9.6370669,7.0894881 9.2792969,6.7675781 9.2218469,6.7162581 9.1870806,6.6453494 9.1816406,6.5683594 9.1816406,6.0044794 9.1806831,5.43888 9.2207031,4.875 9.2593231,4.4058 9.2239944,3.9326294 9.1152344,3.4746094 8.9362044,2.7227094 8.5588575,2.0337325 8.0234375,1.4765625 7.5507675,0.9949765 6.9741206,0.62731875 6.3378906,0.40234375 5.6517681,0.14700625 4.9267891,0.02491391 4.1992188,0.0390625 Z m 8.1718752,9.421875 -2.9980471,2.9609375 0.1132812,0.134766 1.7050779,1.951171 1.59961,1.84375 c 0.4878,0.5599 0.973143,1.120029 1.464843,1.673829 0.3657,0.4099 0.715535,0.834837 1.115235,1.210937 0.4633,0.4549 1.078162,0.725066 1.726562,0.759766 0.7137,0.0372 1.412407,-0.21276 1.941406,-0.69336 0.5291,-0.4808 0.8438,-1.152787 0.875,-1.867187 0.0314,-0.7142 -0.224084,-1.410247 -0.708984,-1.935547 -0.478,-0.4935 -0.983672,-0.961038 -1.513672,-1.398438 -0.8476,-0.7477 -1.70114,-1.480956 -2.55664,-2.222656 L 12.771484,9.8164062 c -0.1439,-0.12399 -0.28459,-0.2494687 -0.40039,-0.3554687 z" />
</svg>

<svg width="20" height="20" viewBox="0 0 20 20" fill="currentColor" xmlns="http://www.w3.org/2000/svg">
<path d="M13.0147 8.47149C12.9428 8.39757 12.8728 8.32156 12.7929 8.23955C12.729 8.30356 12.6731 8.35535 12.6191 8.40933L8.56132 12.4804C7.37793 13.6733 6.18996 14.8624 4.99725 16.0473C4.87595 16.1565 4.79452 16.3027 4.76538 16.4632C4.71141 16.8072 4.63933 17.147 4.56543 17.4869C4.54912 17.5501 4.51077 17.6052 4.45751 17.6429C3.5459 18.2306 2.63443 18.8185 1.72296 19.4063C1.43518 19.5944 1.14934 19.7842 0.875489 19.9662L0 19.1185L0.949556 17.655L2.28476 15.5595C2.33119 15.4669 2.41862 15.4016 2.52068 15.3836C2.87442 15.3316 3.22232 15.2496 3.57411 15.1836C3.69458 15.1628 3.80529 15.104 3.88993 15.0157C5.23434 13.6828 6.57304 12.3497 7.9056 11.0168C8.89839 10.0223 9.88849 9.02793 10.8758 8.03363C11.1578 7.75567 11.4496 7.48776 11.7734 7.1819C11.5235 6.96196 11.3237 6.78203 11.1237 6.58203C10.9758 6.44394 10.842 6.29401 10.69 6.16207C10.4702 5.97212 10.4921 5.52231 10.824 5.4523C10.9879 5.41632 11.1357 5.31227 11.2997 5.26234C11.6099 5.14755 11.8853 4.9548 12.0994 4.70249C12.6691 4.12665 13.2448 3.55677 13.8184 2.98492L15.3915 1.41142C15.7094 1.10347 16.0051 0.777517 16.333 0.491602C16.6087 0.239306 16.9537 0.0751508 17.3233 0.0203372C17.6931 -0.0346157 18.0707 0.0224295 18.4079 0.183796C19.0219 0.436085 19.5162 0.914062 19.7891 1.51936C19.9755 1.87851 20.0408 2.28826 19.9752 2.68758C19.9097 3.08676 19.7167 3.45411 19.4253 3.73472C17.9901 5.18044 16.5489 6.61208 15.1037 8.04962C14.9492 8.1934 14.832 8.37249 14.7618 8.57152C14.6819 8.80149 14.5799 9.02534 14.482 9.24933C14.4198 9.34347 14.3207 9.40707 14.2091 9.42423C14.0976 9.44138 13.9838 9.41056 13.8962 9.33929C13.5965 9.05533 13.3066 8.76145 13.0147 8.47149Z" />
<path d="M1.86881 8.44176C2.46949 8.84958 3.16597 9.09351 3.88975 9.14957C4.7173 9.20954 5.55081 9.15961 6.3824 9.16352C6.45114 9.16338 6.51751 9.18918 6.56826 9.23562C6.89607 9.59949 7.21787 9.97146 7.54177 10.3414C7.58569 10.3913 7.6317 10.4393 7.65164 10.4613L10.3942 7.75193C10.3855 7.74133 10.3762 7.73129 10.3661 7.72195C9.9944 7.40005 9.63659 7.09015 9.27882 6.76824C9.22137 6.71692 9.18624 6.64523 9.1808 6.56824C9.1808 6.00436 9.1808 5.43851 9.22082 4.87463C9.25944 4.40543 9.22361 3.9332 9.11485 3.47518C8.93582 2.72328 8.55893 2.0329 8.02351 1.47573C7.55084 0.994144 6.97455 0.626923 6.33832 0.401948C5.42349 0.061498 4.43785 -0.0429664 3.47198 0.0980417C3.25196 0.141976 3.03443 0.197343 2.82026 0.264011C2.86028 0.31394 2.87827 0.33793 2.89821 0.358014C3.75781 1.24045 4.61727 2.1215 5.47688 3.00126C5.9826 3.51715 6.0505 4.02095 5.50281 4.53877C5.24291 4.78466 4.99905 5.04867 4.74123 5.2986C4.52734 5.4986 4.3115 5.71645 4.07962 5.89847C3.92638 6.00991 3.73299 6.05077 3.54784 6.01047C3.29114 5.9576 3.05871 5.82204 2.88623 5.62454C2.22852 4.97864 1.57695 4.32285 0.925228 3.6711C0.697395 3.44321 0.473473 3.21126 0.231533 2.96329C0.213407 3.00374 0.197512 3.04503 0.183706 3.08715C-0.0326945 3.9287 -0.057374 4.80821 0.111759 5.66052C0.341545 6.8142 0.867392 7.77591 1.86881 8.44176Z" />
<path d="M17.6923 14.1019C16.8447 13.3542 15.9912 12.6203 15.1357 11.8786L12.771 9.81705C12.6271 9.69306 12.4871 9.56712 12.3713 9.46112L9.37291 12.4224L9.48682 12.5564L11.192 14.5079L12.7911 16.3514C13.2789 16.9113 13.7646 17.4711 14.2563 18.0249C14.622 18.4348 14.9719 18.8606 15.3716 19.2367C15.8349 19.6916 16.4483 19.9617 17.0967 19.9964C17.8104 20.0336 18.5096 19.7841 19.0386 19.3035C19.5677 18.8227 19.883 18.1506 19.9142 17.4362C19.9456 16.722 19.6904 16.0248 19.2055 15.4995C18.7275 15.006 18.2223 14.5393 17.6923 14.1019Z" />
</svg>
